Papirus/24x24/panel/yd-ind-error.svg

<?xml version="1.0" encoding="UTF-8" standalone="no"?>
<svg xmlns:dc="http://purl.org/dc/elements/1.1/" xmlns:cc="http://creativecommons.org/ns#" xmlns:rdf="http://www.w3.org/1999/02/22-rdf-syntax-ns#" xmlns:svg="http://www.w3.org/2000/svg" xmlns="http://www.w3.org/2000/svg" version="1.0" width="24" height="24" id="svg2817">
    <metadata id="metadata57">
        <rdf:RDF>
            <cc:Work rdf:about="">
                <dc:format>
                    image/svg+xml
                </dc:format>
                <dc:type rdf:resource="http://purl.org/dc/dcmitype/StillImage"/>
                <dc:title/>
            </cc:Work>
        </rdf:RDF>
    </metadata>
    <path style="opacity:1;fill:#5294e2;fill-opacity:1" d="M 4.2807432,14.097359 C 4.157918,14.230516 4.0661325,14.345253 4,14.436305 4.0749857,14.3342 4.1708246,14.219463 4.2807432,14.097359 Z M 19.484288,10.220528 c 0.04276,0.02057 0.08624,0.04075 0.121642,0.06166 -0.0272,-0.01604 -0.07004,-0.03786 -0.121642,-0.06166 z M 11.262524,10.58158 C 15.800601,9.334215 18.236304,9.777898 19.180292,10.100002 18.142438,9.743162 16.10993,9.455267 15.067276,8.834216 14.071022,8.240744 13.011302,6.4442763 10.371335,7.1699585 7.7319538,7.8956929 7.7256072,9.931055 7.1153748,11.021052 6.6156476,11.914734 5.0675068,13.221046 4.2809565,14.096832 5.0280939,13.284203 6.9292971,11.773681 11.262737,10.58158 Z M 12.6328,7.9362189 c 0.248274,-0.068182 0.639352,0.012276 0.946868,0.2324991 0.437035,0.312457 0.568313,0.788103 0.09316,0.918734 -0.475674,0.130611 -1.084254,-0.213199 -1.273531,-0.59384 -0.133236,-0.268725 -0.0144,-0.489556 0.233517,-0.5573664 z M 10.689357,8.277219 c 0.406715,-0.111301 0.810337,0.08185 0.902176,0.432534 0.09132,0.349952 -0.163998,0.724841 -0.57066,0.836261 C 10.614078,9.657693 10.210537,9.464664 10.118644,9.113974 10.027324,8.764038 10.2826,8.389397 10.689411,8.277239 Z M 8.1335489,9.665951 c 0.159518,-0.348683 0.4586716,-0.618683 0.7064446,-0.687208 0.2476342,-0.06805 0.4586716,0.06203 0.4739141,0.362735 0.0216,0.426778 -0.3378732,1.036681 -0.8135366,1.167628 -0.4747941,0.1306 -0.5927927,-0.348331 -0.3668755,-0.843155 z m 11.8441201,1.816152 c -0.319996,-1.234206 -4.061816,-1.160522 -8.389229,0.03632 -4.327147,1.196839 -7.6036398,3.063675 -7.2825771,4.297355 0.21668,0.834998 2.0640278,1.307787 4.5751434,1.156102 1.0494803,0.09 2.4553827,-0.06442 3.9547247,-0.476766 1.477795,-0.406095 2.756019,-0.982367 3.620808,-1.588312 2.319972,-1.178154 3.741767,-2.57494 3.52097,-3.424726 z m -7.293243,4.430934 c -1.882377,0.517651 -3.4816104,0.658525 -3.6081155,0.172968 -0.1268357,-0.485057 1.3020635,-1.275943 3.1848145,-1.79331 1.882163,-0.518146 3.505769,-0.564999 3.632808,-0.07972 0.126836,0.48482 -1.327397,1.182681 -3.20956,1.700101 z" id="yandex-ufo"/>
</svg>

<?xml version="1.0" encoding="UTF-8" standalone="no"?>
<svg id="svg2817" xmlns:rdf="http://www.w3.org/1999/02/22-rdf-syntax-ns#" xmlns="http://www.w3.org/2000/svg" height="24" width="24" version="1.0" xmlns:cc="http://creativecommons.org/ns#" xmlns:dc="http://purl.org/dc/elements/1.1/">
 <metadata id="metadata57">
  <rdf:RDF>
   <cc:Work rdf:about="">
    <dc:format>image/svg+xml</dc:format>
    <dc:type rdf:resource="http://purl.org/dc/dcmitype/StillImage"/>
    <dc:title/>
   </cc:Work>
  </rdf:RDF>
 </metadata>
 <path id="yandex-ufo" d="m4.2807 14.097c-0.1228 0.134-0.2146 0.248-0.2807 0.339 0.075-0.102 0.1708-0.217 0.2807-0.339zm15.203-3.876c0.04276 0.02057 0.08624 0.04075 0.12164 0.06166-0.0272-0.01604-0.07004-0.03786-0.12164-0.06166zm-8.221 0.361c4.538-1.2478 6.973-0.8041 7.917-0.482-1.038-0.3568-3.07-0.6447-4.113-1.2658-0.996-0.5935-2.056-2.3899-4.696-1.6642-2.639 0.7257-2.6454 2.7611-3.2556 3.851-0.4998 0.894-2.0479 2.2-2.8344 3.076 0.7471-0.813 2.6483-2.323 6.982-3.515zm1.37-2.6458c0.24827-0.068182 0.63935 0.012276 0.94687 0.2325 0.43704 0.31246 0.56831 0.7881 0.09316 0.91873-0.47567 0.13061-1.0843-0.2132-1.2735-0.59384-0.13324-0.26872-0.0144-0.48956 0.23352-0.55737zm-1.944 0.341c0.40672-0.1113 0.81034 0.08185 0.90218 0.43253 0.09132 0.34995-0.164 0.72484-0.57066 0.83626-0.407 0.1117-0.81-0.0813-0.902-0.432-0.092-0.35 0.164-0.7246 0.57-0.8368zm-2.5555 1.3888c0.15952-0.34868 0.45867-0.61868 0.70644-0.68721 0.24763-0.06805 0.45867 0.06203 0.47391 0.36274 0.0216 0.42678-0.33787 1.0367-0.81354 1.1676-0.47479 0.1306-0.59279-0.34833-0.36688-0.84316zm11.844 1.8162c-0.32-1.2342-4.0618-1.1605-8.3892 0.03632-4.3271 1.1968-7.6036 3.0637-7.2826 4.2974 0.21668 0.835 2.064 1.3078 4.5751 1.1561 1.0495 0.09 2.4554-0.06442 3.9547-0.47677 1.4778-0.4061 2.756-0.98237 3.6208-1.5883 2.32-1.1782 3.7418-2.5749 3.521-3.4247zm-7.2932 4.4309c-1.8824 0.51765-3.4816 0.65852-3.6081 0.17297-0.12684-0.48506 1.3021-1.2759 3.1848-1.7933 1.8822-0.51815 3.5058-0.565 3.6328-0.07972 0.12684 0.48482-1.3274 1.1827-3.2096 1.7001z" fill="#5294e2"/>
</svg>
